X:499
T:Polska # 499
T: efter Melker Andersson
Q: 120
M:3/4
L:1/16
K: G
B2| d3B g6d2| B3d G6B2| B3A A3f A3f| d3B B3g B3g| d3B g6d2|
B3d G6B2| A3B c3d e3f| g4 g4 z2 :: B2| c3e c3e g3e| d3B G3B d3B|
A3c D3F A3F| G3B G3B d3B| c3e c3e g3e| d3B G3B d3B| A3B c3d e3f| g4 g4 z2:|

